X: 7356
T: Cliffs Of Moher, The
R: jig
M: 6/8
K: Edorian
|:Bee e2d|Bee dBA|FDD A,DD|FDF AFA|
Bee e2d|Bee dBA|FDD A,DD|FED DEA:|
|:BdB AFA|BdB AFA|FDD A,DD|FDF AFA|
BdB AFA|BdB AFA|FDD A,DD|FED DEA:|

